X:1
T:Able to Deliver
T:Able to Deliver
T:Ira David Sankey
T:Frances Jane (Fanny) Crosby, 1899
T:Public Domain Courtesy of the Cyber Hymnal™
C:Ira David Sankey
Z:Public Domain
Z:Courtesy of the Cyber Hymnal™
%%score 1 ( 2 3 )
L:1/8
Q:1/4=105
M:4/4
K:Bb
V:1 treble 
V:2 bass 
V:3 bass 
V:1
 ([B,D]>[CE]) | [EG]2 [DF]2 [DF]2 [FB]>[Ec] | [DB]2 [CA]2 [CA]2 [A,C]>[B,D] | %3
w: 1.~O *|trou- bled heart, be thou|not a- fraid, In the|
w: 2.~O *|trou- bled heart, tho’ thy|foes u- nite, Let thy|
w: 3.~O *|trou- bled heart, when thy|way is drear, He will|
 [CE]2 [CE]2 [CE]2 [EA]>[EG] | [DG]2 [DF]2 [DF]2 [B,D]>[CE] | [DF]2 [DF]2 [DF]2 [Fd]>[Fd] | %6
w: Lord thy God, let thy|hope be stayed; He will|hear thy cry and will|
w: faith be strong and thy|ar- mor bright; Thou shalt|o- ver- come thro’ His|
w: res- cue thee and dis-|pel thy fear; In thy|great- est need He is|
 [Ec]2 [EG]2 [EG]2 ([=Ec]>[GB]) | [FA]2 [EA]2 [DB]2 [Ec]2 | [DB]6 ||"^Refrain" [DF]>[DB] | %10
w: give thee aid, What- *|e’er thy cross may|be.||
w: pow’r and might, And *|more than con- qu’ror|be.||
w: al- ways near, To *|Him all glo- ry|be.||
 [Fd]2 [Fd]2 [Fd]2 [Ge]>[Fd] | [Fd]2 [Ec]2 [Ec]2 [EF]>[EA] | [Ec]2 [Ec]2 [Ec]2 [Fd]>[Ec] | %13
w: |||
w: |||
w: |||
 [Ec]2 [DB]2 [DB]2 [DF]>[DF] | [EG]2 [EG]2 [GB]2 [FA]>[EG] | [DF]2 [DB]2 [Fd]2 [FB]2 | %16
w: |||
w: |||
w: |||
 [Ec]2 [EG]2 [EA]3 [EF] | [DB]6 |] %18
w: ||
w: ||
w: ||
V:2
 [B,,F,]2 | [B,,B,]2 [B,,B,]2 [B,,B,]2 [C,B,]>[E,G,] | F,2 F,2 F,2 F,>F, | %3
w: ~|~ ~ ~ ~ ~|~ ~ ~ ~ ~|
 [F,A,]2 [F,A,]2 [F,A,]2 [F,C]>[F,A,] | [B,,B,]2 [B,,B,]2 [B,,B,]2 [B,,F,]>[B,,G,] | %5
w: ~ ~ ~ ~ ~|~ ~ ~ ~ ~|
 [B,,B,]2 [B,,B,]2 [B,,B,]2 [B,,B,]>[B,,B,] | [E,G,]2 [E,B,]2 [E,B,]2 [C,C]2 | %7
w: ~ ~ ~ ~ ~|~ ~ ~ ~|
 [F,C]2 [F,C]2 [F,B,]2 [F,A,]2 | [B,,B,]6 || [B,,B,]>[B,,B,] | %10
w: ~ ~ ~ ~|~|He is|
 [B,,B,]2 [B,,B,]2 [B,,B,]2 [B,,B,]>[B,,B,] | [F,A,]2 [F,A,]2 [F,A,]2 [F,A,]>[F,C] | %12
w: a- ble still to de-|liv- er thee, And His|
 [F,A,]2 [F,A,]2 [F,A,]2 F,>[F,A,] | [B,,B,]2 [B,,B,]2 [B,,F,]2 [B,,B,]>[B,,B,] | %14
w: own right hand thy de-|fense shall be: He is|
 [E,B,]2 [E,B,]2 [E,B,]2 [E,B,]>[E,B,] | [B,,B,]2 [B,,F,]2 [B,,B,]2 [D,_A,]2 | %16
w: a- ble still to de-|liv- er thee, Then|
 [E,G,]2 [E,C]2 [F,C]3 [F,A,] | [B,,F,]6 |] %18
w: be thou not a-|fraid.|
V:3
 x2 | x8 | F,2 F,2 F,2 F,>F, | x8 | x8 | x8 | x8 | x8 | x6 || x2 | x8 | x8 | x6 F,3/2 x/ | x8 | %14
 x8 | x8 | x8 | x6 |] %18

